X:1
T:Peace, Be Still
T:Peace, Be Still
T:Charles Hutchinson Gabriel
T:D. M. James, 1896
T:Public Domain Courtesy of the Cyber Hymnal™
T:Public Domain Courtesy of the Cyber Hymnal™
C:Charles Hutchinson Gabriel
Z:Public Domain
Z:Courtesy of the Cyber Hymnal™
%%score ( 1 2 ) ( 3 4 )
L:1/8
Q:1/4=85
M:3/4
K:F
V:1 treble-8 
V:2 treble-8 
V:3 bass 
V:4 bass 
V:1
"^Male quartet" [Ac]>[Ac] | [Ac]3 [Af] (3([FA][GB])[Ac] | [Bd]2 [Ac]2 [Ac]>[cf] | %3
w: 1.~When our|hearts are sad * and|wea- ry, When our|
w: 2.~Do we|grieve at man’s * be-|hav- ior? Mourn we|
w: 3.~Have you|heard His voice * with-|in you? Does the|
 ([ce]2- (3[ce][Bd])[Ac] (3([GB][Ac])[Bd] | [Ac]2 [FA]2 [FA]>[FA] | [FA]3 [FA] (3([F=B][Gc])[Bd] | %6
w: paths * * seem lone * and|drea- ry, Sweet the|voice can make * us|
w: all * * in vain * our|la- bor, Pre- cious|ac- cents of * our|
w: joy * * it brings * con-|tin- ue? From all|e- vil may * it|
 [ce]2 [Gc]2 z2 | [Gd]4 [G=B]2 | [Gc]4 [Ac]>[Ac] | [GB]3 [FA] (3([EG][FA])[GB] | %10
w: chee- ry,|Peace, be|still. When we|meet with tri- * bu-|
w: Sav- ior,|Peace, be|still. Can the|Lord for- get * us|
w: win you,|Peace, be|still. Soon will|drop our hea- * vy|
 [FA]2 [Ac]2 c>[cd] | [ce]3 [ce] e2- (3:2:1[de] x/12 | [ce]2 [ce]2 [ce]>[ce] | %13
w: la- tion, Chaf- ing|un- der sore temp-|ta- tion, Bless the|
w: e- ver? Can His|love from us e’er|sev- er? Ours may|
w: cross- es, Re- com-|pense for all our|loss- es, An- chored|
 [cf]3 [Ac] (3([Ac][Bd])[c_e] x | [c_e]2 [Bd]2 z2 | [Ac]4 [Bc]2 | [Ac]3 || %17
w: Lord for con- * so-|lat- ion,|Peace, be|still.|
w: fail, but His, * ah,|nev- er!|Peace, be|still.|
w: safe where storm * ne’er|toss- es,|Peace, be|still.|
[M:4/4]"^Refrain" [Ac][FA]>[GB] | [Ac]4- [Ac]>[Af] [ce]>[Bd] | [Bd]2 [Ac]4 z2 | %20
w: In all thy|ways, * oh, seek His|guid- ing,|
w: |||
w: |||
 z3/2 [Be]/ [Be]>[Be] [Be]>[Be] z2 | z2 [cf]>[cf] [cf]>[cf] [Af]>[ce] | %22
w: A- mid all trou- bles,|still con- fid- ing, In His|
w: ||
w: ||
 [Bd]4- [Bd]>[Bd] (3[Bd][ce][df] | [Bd]2 [Ac]4 c>A | (z2 c>)G x6 | (z2 !fermata![Ac]2) x2 |] %26
w: grace * and pow- er a-|bid- ing, Peace, be|* still,||
w: ||||
w: ||||
V:2
 x2 | x6 | x6 | x6 | x6 | x6 | x6 | x6 | x6 | x6 | x4 c3/2 x/ | x4 (3:2:2=Bc x17/12 | x6 | x7 | %14
 x6 | x6 | x3 ||[M:4/4] x3 | x8 | x8 | x8 | x8 | x8 | x8 | (c6 G>A B2) | c4 A>B |] %26
V:3
 [F,,F,]>[F,,F,] | [F,,F,]3 [F,,F,] (3:2:2[F,,C,]2 [F,,C,] | [F,,F,]2 [F,,F,]2 [F,,F,]>[A,,F,] | %3
w: ~ ~|~ ~ ~ ~|~ ~ ~ ~|
 ([C,G,]2- (3:2:2[C,G,]2 [C,G,]) (3:2:2[C,E,]2 [C,E,] | [F,,F,]2 [F,,C,]2 F,>F, | %5
w: ~ * * ~ ~|~ ~ ~ ~|
 [D,F,]3 [D,F,] (3(D,E,)[G,,G,] | [C,G,]2 [C,E,]2 z2 | [G,,F,]4 [G,,F,]2 | [C,E,]4 [C,F,]>[C,F,] | %9
w: ~ ~ ~ * ~|~ ~|~ ~|~ ~ ~|
 [C,E,]3 C, (3:2:2C,2 [C,E,] | F,2 F,2 [F,A,]>[F,A,] | [E,A,]3 [E,A,] (3G,A,[E,B,] x3/4 | %12
w: ~ ~ ~ ~|~ ~ ~ ~|~ ~ ~ ~ ~|
 [A,,A,]2 [A,,A,]2 [G,,B,]>[C,B,] | [F,,A,]3 [F,,F,] F,3 | [B,,F,]2 [B,,F,]2 z2 | [C,F,]4 [C,E,]2 | %16
w: ~ ~ ~ ~|~ ~ ~|~ ~|~ ~|
 !fermata![F,,F,]3 ||[M:4/4] z3 | z3/2 [F,,F,]/ [F,,F,]>[F,,F,] [F,,F,]2 z2 | %19
w: ~||In all thy ways,|
 z3/2 [F,,F,]/ [F,,F,]>[F,,F,] [F,,F,]>[F,,F,] (3([A,,F,][C,G,])[F,A,] | %20
w: Oh, seek His guid- ing!; ’Mid * all|
 [C,G,]4- [C,G,]>[C,G,] (3([C,G,][D,F,])[E,G,] | [F,A,]2 [F,A,]4 z2 | %22
w: trou- * bles still * con-|fid- ing|
 z2 [B,,F,]>[B,,F,] [B,,F,]2 z2 | z3/2 [F,,F,]/ [F,,F,]>[F,,F,] [F,,F,]>[F,,F,] z2 | %24
w: In His grace|and power a- bid- ing,|
 z2 [C,E,]>[C,F,] [C,G,]2 z2 x2 | z2 [F,,F,]>[F,,G,] !fermata![F,,F,]2 |] %26
w: Peace, be still,|peace, be still.|
V:4
 x2 | x6 | x6 | x6 | x4 F,>F, | x4 G,,2 | x6 | x6 | x6 | x3 C, C,2 | F,2 F,2 x2 | x4 E,2- x3/4 | %12
 x6 | x4 (3:2:2F,,2 A,, x | x6 | x6 | x3 ||[M:4/4] x3 | x8 | x8 | x8 | x8 | x8 | x8 | x10 | x6 |] %26

